X:444
T:
R:vals
S:Efter skomakaren Pucksson, Klintehamn.
O:Gotland, Klintehamn
M:3/4
L:1/8
K:Bb
f2|b4 fd|B2 BABd|cBcdef|e2 d2 f2|b4 fd|B2 BABd|cdegfA|B4::f2|
(ef)(cf)(ef)|(df)(bf)(df)|(ef)(cf)(ef)|(df)(ef)(ga)|b4 fd|B2 BABd|cdegfA|B4:|

